src/assets/img/svgs/colour-bus.svg

<?xml version="1.0" encoding="UTF-8"?>
<svg width="255px" height="255px" viewBox="0 0 255 255" version="1.1" xmlns="http://www.w3.org/2000/svg" xmlns:xlink="http://www.w3.org/1999/xlink">
    <!-- Generator: Sketch 58 (84663) - https://sketch.com -->
    <title>Icon / Modes / Colour / Bus</title>
    <desc>Created with Sketch.</desc>
    <g id="Icon-/-Modes-/-Colour-/-Bus" stroke="none" stroke-width="1" fill="none" fill-rule="evenodd">
        <rect id="Rectangle" fill="#FFFFFF" x="73" y="42" width="108" height="173"></rect>
        <path d="M25.448186,0.664 L229.346233,0.658046512 C243.197023,0.658046512 254.550428,11.8729433 254.776111,25.6752896 L254.779535,26.0943256 L254.779535,229.563721 C254.779535,243.414512 243.564638,254.770834 229.76518,254.996575 L229.346233,255 L25.4362791,255 C11.5854884,255 0.22916614,243.782186 0.00342477395,229.982669 L4.26325641e-14,229.563721 L0.0119069767,26.1002791 C0.0119069767,12.2494884 11.2297213,0.89316614 25.0292376,0.667424774 L25.448186,0.664 L229.346233,0.658046512 Z M169.784558,43.0528372 L138.028651,43.043907 C132.435807,43.0496315 123.400001,43.0526038 117.526436,43.0501777 L116.837209,43.0498605 L85.0068837,43.0498605 C79.2563995,43.0527884 74.5657355,47.66363 74.4106559,53.3669625 L74.4066977,53.6530233 L74.4037209,186.124093 C74.4066489,191.84237 79.0117305,196.564185 84.706376,196.717462 L84.992,196.721302 L84.9949767,196.718326 L85.0068837,209.432 C85.0068837,211.12197 86.3250045,212.509465 87.9966973,212.603145 L88.1771163,212.608186 L97.7146047,212.61414 C99.4074483,212.608391 100.800593,211.276197 100.897338,209.624975 L100.902698,209.446884 L100.893767,196.721302 L116.786605,196.730233 C122.399485,196.721646 131.427805,196.718563 137.292826,196.720985 L137.981023,196.721302 L153.876837,196.721302 L153.876837,209.434977 C153.876837,211.119198 155.219933,212.50927 156.88799,212.600455 L157.067907,212.605209 L166.599442,212.608186 C168.300908,212.613934 169.686025,211.284912 169.776848,209.61514 L169.781581,209.434977 L169.784558,196.730233 C175.514547,196.721449 180.216395,192.098991 180.371846,186.409443 L180.375814,186.124093 L180.378792,53.6530233 C180.381719,47.9142509 175.765213,43.2208989 170.070192,43.0572298 L169.784558,43.0528372 L138.028651,43.043907 Z M161.827721,164.923721 C166.203535,164.929674 169.787535,168.507721 169.787535,172.892465 C169.778605,177.259349 166.212465,180.819535 161.821767,180.822512 C157.45786,180.819535 153.879807,177.271256 153.879807,172.883535 C153.87386,168.504744 157.45786,164.923721 161.827721,164.923721 Z M92.939907,164.929674 C97.3246512,164.929674 100.893767,168.507721 100.902698,172.883535 C100.902698,177.271256 97.3246512,180.822512 92.9547907,180.810635 C88.5670698,180.810635 85.006867,177.274233 85.006867,172.886512 C84.9979535,168.507721 88.5700465,164.929674 92.939907,164.929674 Z M164.485953,117.239253 C167.318623,117.236353 169.664573,119.505754 169.777344,122.317551 L169.781584,122.534884 L169.781584,149.021953 C169.781584,151.866233 167.509278,154.209643 164.697338,154.322279 L164.48,154.326514 L90.2846512,154.326514 C87.4635907,154.329414 85.1179312,152.065673 85.0134474,149.2514 L85.0098605,149.03386 L84.9979535,122.531907 C84.9979535,119.696335 87.267427,117.358799 90.0792254,117.243695 L90.2965581,117.239253 L164.485953,117.239253 Z M145.41693,96.0388837 C147.098277,96.0388837 148.482701,97.3792044 148.5735,99.0336732 L148.578233,99.212093 L148.581209,103.459907 C148.578335,105.149877 147.24624,106.540147 145.586984,106.634018 L145.408,106.63907 L109.365581,106.627163 C107.695731,106.638659 106.297829,105.30706 106.211445,103.639782 L106.207256,103.459907 L106.198326,99.212093 C106.198326,97.5221235 107.527546,96.137403 109.186608,96.0439145 L109.365581,96.0388837 L145.41693,96.0388837 Z M164.485953,53.644093 C167.400186,53.644093 169.781581,56.0433488 169.784558,58.9546047 L169.784558,58.9546047 L169.781581,80.1430698 C169.784558,83.0573023 167.400186,85.4416744 164.485953,85.4506047 L164.485953,85.4506047 L90.3025116,85.4506047 C87.3763721,85.4416744 85.0068837,83.0513488 84.9979535,80.1430698 L84.9979535,80.1430698 L84.9979535,58.9546047 C85.0098605,56.0344186 87.3823256,53.644093 90.3084651,53.6500465 L90.3084651,53.6500465 Z" id="Combined-Shape" fill="#EA0029"></path>
    </g>
</svg>

<svg width="255" height="255" xmlns="http://www.w3.org/2000/svg"><g fill="none" fill-rule="evenodd"><path fill="#FFF" d="M73 42h108v173H73z"/><path d="M25.448.664L229.346.658c13.851 0 25.204 11.215 25.43 25.017l.004.42v203.469c0 13.85-11.215 25.207-25.015 25.433l-.419.003H25.436C11.586 255 .23 243.782.003 229.983l-.003-.42L.012 26.1C.012 12.25 11.23.893 25.029.667l.42-.003L229.345.658zm144.337 42.389l-31.756-.01c-5.593.007-14.629.01-20.503.007H85.007c-5.75.003-10.441 4.614-10.596 10.317l-.004.286-.003 132.471c.003 5.718 4.608 10.44 10.302 10.593l.286.004.003-.003.012 12.714a3.173 3.173 0 002.99 3.171l.18.005 9.538.006c1.692-.006 3.086-1.338 3.182-2.989l.006-.178-.01-12.726 15.894.01c5.612-.01 14.64-.012 20.506-.01h16.584v12.714c0 1.684 1.343 3.074 3.011 3.165l.18.005 9.531.003a3.169 3.169 0 003.178-2.993l.005-.18.003-12.705c5.73-.009 10.431-4.631 10.587-10.32l.004-.286.003-132.471c.003-5.739-4.614-10.432-10.309-10.596l-.285-.004-31.756-.01zm-7.957 121.87c4.376.007 7.96 3.585 7.96 7.97-.01 4.366-3.576 7.927-7.966 7.93-4.364-.003-7.942-3.552-7.942-7.94-.006-4.378 3.578-7.96 7.948-7.96zm-68.888.007c4.385 0 7.954 3.578 7.963 7.954 0 4.387-3.578 7.939-7.948 7.927-4.388 0-7.948-3.537-7.948-7.924-.009-4.38 3.563-7.957 7.933-7.957zm71.546-47.69c2.833-.004 5.179 2.266 5.291 5.078l.005.217v26.487c0 2.844-2.273 5.188-5.085 5.3l-.217.005H90.285c-2.821.002-5.167-2.261-5.272-5.076l-.003-.217-.012-26.502c0-2.836 2.27-5.173 5.081-5.288l.218-.005h74.189zm-19.07-21.201c1.682 0 3.067 1.34 3.157 2.995l.005.178.003 4.248a3.19 3.19 0 01-2.994 3.174l-.179.005-36.042-.012c-1.67.012-3.068-1.32-3.155-2.987l-.004-.18-.009-4.248c0-1.69 1.33-3.075 2.989-3.168l.179-.005h36.05zm19.07-42.395c2.914 0 5.296 2.4 5.299 5.31l-.003 21.19c.003 2.913-2.382 5.298-5.296 5.307H90.303c-2.927-.01-5.296-2.4-5.305-5.308V58.955c.012-2.92 2.384-5.31 5.31-5.305z" fill="#EA0029"/></g></svg>
